X: 1
T:Gan Ainm
M:6/8
L:1/8
C:Trad (probably)
S:Alan Stivell
R:Jig
K:Em
|:GGG GFG |  AGA BcB | GGG GFG | AFD E3 :|
|:GAB F2A | AGF GFE | GAB F2A | AGF E3 :|
|:B2c B2A | GBA GFE | B2c B2A |  GFG E3:|
|:EFG EFG| AGF GFE | B2c B2A |1 GFE B3 :|2 GFG E3|
|:BcB B2A | ABA A2G| GFE BBB | AGF E3 :|
|:BAB eee | fga gfe | BAB eee | fed e3 :|
